src/images/svg/symbols/markets-stocks-and-indices/american-stocks/stocks-american-international-group.svg

<svg width="32" height="32" viewBox="0 0 32 32" fill="none" xmlns="http://www.w3.org/2000/svg">
<path d="M0 16C0 7.16344 7.16344 0 16 0V0C24.8366 0 32 7.16344 32 16V16C32 24.8366 24.8366 32 16 32V32C7.16344 32 0 24.8366 0 16V16Z" fill="#1BA3DD"/>
<path d="M21.715 16.1425H24.715V16.375C24.7269 16.8519 24.6636 17.3278 24.5275 17.785C24.3928 18.1773 24.1783 18.5373 23.8975 18.8425C23.5711 19.2019 23.1709 19.4865 22.7243 19.6768C22.2777 19.8671 21.7952 19.9586 21.31 19.945C20.8244 19.9532 20.3422 19.8631 19.8924 19.6801C19.4425 19.497 19.0344 19.2249 18.6925 18.88C18.3452 18.5437 18.0691 18.141 17.8806 17.6958C17.692 17.2507 17.5948 16.7722 17.5948 16.2888C17.5948 15.8053 17.692 15.3268 17.8806 14.8817C18.0691 14.4365 18.3452 14.0338 18.6925 13.6975C19.0479 13.3468 19.4699 13.0706 19.9335 12.8851C20.3972 12.6997 20.8932 12.6087 21.3925 12.6175C21.9408 12.6124 22.4835 12.7276 22.9825 12.955C23.5205 13.2198 24.0019 13.5866 24.4 14.035L23.6125 14.785C23.369 14.4305 23.0433 14.1403 22.6632 13.9392C22.2831 13.7381 21.86 13.632 21.43 13.63C21.0734 13.6169 20.7179 13.6767 20.3852 13.8057C20.0525 13.9346 19.7496 14.13 19.495 14.38C19.2368 14.6241 19.0332 14.92 18.8975 15.2483C18.7618 15.5766 18.697 15.9299 18.7075 16.285C18.6987 16.655 18.7729 17.0222 18.9248 17.3597C19.0766 17.6971 19.3022 17.9963 19.585 18.235C20.0644 18.681 20.6927 18.9324 21.3475 18.94C21.8818 18.9442 22.4003 18.7581 22.81 18.415C23.0145 18.2624 23.1863 18.0702 23.3152 17.8499C23.444 17.6296 23.5272 17.3856 23.56 17.1325H21.715V16.1425Z" fill="white"/>
<path fill-rule="evenodd" clip-rule="evenodd" d="M6.61749 19.8175L9.99999 12.76H10.4275L13.69 19.8175H12.4825L11.7325 18.1H8.61249L7.80249 19.8175H6.61749ZM11.2825 17.1025L10.2025 14.7025H10.165L9.03249 17.1025H11.2825Z" fill="white"/>
<path d="M14.845 19.8175H15.9475V12.76H14.845V19.8175Z" fill="white"/>
<path fill-rule="evenodd" clip-rule="evenodd" d="M28 22.57H4V10H28V22.57ZM27.0025 10.9675H4.9975V21.6025H27.0025V10.9675Z" fill="white"/>
</svg>

<svg width="32" height="32" fill="none" xmlns="http://www.w3.org/2000/svg"><path d="M0 16C0 7.163 7.163 0 16 0s16 7.163 16 16-7.163 16-16 16S0 24.837 0 16Z" fill="#1BA3DD"/><path d="M21.715 16.142h3v.233c.012.477-.051.953-.188 1.41-.134.392-.349.752-.63 1.058a3.369 3.369 0 0 1-2.587 1.102 3.6 3.6 0 0 1-2.617-1.065 3.605 3.605 0 0 1 0-5.182 3.75 3.75 0 0 1 2.7-1.08 3.75 3.75 0 0 1 1.59.337 4.63 4.63 0 0 1 1.417 1.08l-.787.75a2.662 2.662 0 0 0-2.183-1.155 2.624 2.624 0 0 0-1.935.75 2.52 2.52 0 0 0-.788 1.905 2.475 2.475 0 0 0 .878 1.95c.48.446 1.108.697 1.762.705a2.25 2.25 0 0 0 1.463-.525 1.906 1.906 0 0 0 .75-1.282h-1.845v-.99Z" fill="#fff"/><path fill-rule="evenodd" clip-rule="evenodd" d="M6.617 19.817 10 12.76h.428l3.262 7.057h-1.207l-.75-1.717h-3.12l-.81 1.717H6.616Zm4.666-2.715-1.08-2.4h-.038l-1.133 2.4h2.25Z" fill="#fff"/><path d="M14.845 19.817h1.102V12.76h-1.102v7.057Z" fill="#fff"/><path fill-rule="evenodd" clip-rule="evenodd" d="M28 22.57H4V10h24v12.57Zm-.997-11.603H4.997v10.635h22.006V10.967Z" fill="#fff"/></svg>
